X:44
T:Diesel Though The Day
M:C|
C:© Paul Gitlitz 2009
R:Reel
N: This is my life on COFFEE!!
K:A
"A"A3A- ABcA|BAcA BAEF|"F#m"A3A- ABcA|dBcA BAFG|!
"D"A3A- ABcA|BAcA BAF2|"E"B3B- BABc|1dBcA BAEF:|2dBcA BAF2|!
|:"A"e3e- efga|cecA BAFA|"F#m"e3e- efga|fecA BABc|!
"D"e3e- efga|eaec BAFA|"E"B3B- BABc|1dBcA BAF2:|2dAcA BAEF|]
